X:0636
T:The Caledonian Beauty.
M:2/4
L:1/16
Q:1/4=108
I: :: :: ::
Z:Jack Campin * www.campin.me.uk * 2009
K:D
d2d2 edec|d2d2 edec|d2d2`e2e2|f2f2 gecA |
d2d2 edec|d2d2 edec|d2d2`e2e2|fgec d2z2:|
d2d'4  af|e2g4   fe|d2f2`d2f2|edcB A4   |
d2d'4  af|e2g4   fe|d2f2`d2f2|agfe d2z2:|
A3`G`F2A2|B2B2 G2z2|e2e2 dcBA|defd A2A2 |
A3`G`F2A2|B2B2 G2z2|e2e2 cdec|d2d2 d4  :|

